X:1
T:Title
%%score { ( 1 3 4 ) | ( 2 5 ) }
L:1/8
M:4/4
K:Ab
V:1 treble nm="Grand Piano"
V:3 treble 
V:4 treble 
V:2 bass 
V:5 bass 
V:1
 z4 z2[Q:1/4=106] E2 | [CA]2 [CA]2 [CA]3 [DB] | [Ec]2 [CA]4 [CE]2 | [DF]2 [EG]2 [GB][FA][EG][DF] | %4
[M:3/4] [CE]6 |[M:1/4] [CE]2 |[M:4/4] [CA]2 [CA]2 z2 z B | [Ec]2 e4 c2 | %8
 [EB]2 [EB]2 [=DB][Dc][DB][DF] |[M:3/4] G4 F2 |[M:1/4] E2 |[M:4/4] E2 d2 c3 B | [DB]2 [CA]4 E2 | %13
 =E2 E2 AAEE |[M:3/4] E6 |[M:1/4] E2 |[M:4/4] [CE]2 e2 d3 c | [Ec]2 [DB]4 F2 | E2 A2 GA[Gc][GB] | %19
 A6 z2 |[M:6/8][Q:1/4=95] c3 z3 | e3 z3 | F3 z3 | E3 z3 | c3 z3 | e3 z3 | B3 z3 | B6 | c3 z3 | %29
 e3 z3 | A3 z3 | c6 | c3 z3 | c3 z3 | z CC B3 | A-[CA-][DA-] [CA]3 |] %36
V:2
 z4 z2 E,2 | [A,,E,]2 [A,,E,]2 [A,,E,]3 [A,,E,] | [A,,E,]2 [A,,E,]4 [A,,A,]2 | %3
 [D,A,]2 [D,A,]2 [D,A,][D,A,][D,A,][D,A,] |[M:3/4] [A,,A,]6 |[M:1/4] [A,,A,]2 | %6
[M:4/4] [A,,E,]2 [A,,E,]2 [A,,E,]2 z D | [A,,A,]2[K:treble] [A,CA]4 [A,E]2 | %8
 [B,,G,]2 [B,,G,]2 [B,,A,][B,,A,][B,,F,][B,,B,] |[M:3/4] B,4 A,2 |[M:1/4] [E,G,D]2 | %11
[M:4/4] [E,G,D]2 [E,G,F]2 [E,G,E]3 [E,G,D] | [A,,A,]2 [A,,A,]4 E,2 | =E,2 E,2 A,A,E,E, | %14
[M:3/4] E,2 [E,A,]2 [E,B,]2 |[M:1/4] [E,G,D]2 |[M:4/4] [A,,A,]2 [A,CE]2 [F,=A,F]3 [F,A,E] | %17
 [B,,B,]2 [B,,B,]4 [=D,A,_C]2 | [E,A,C]2 [E,CE]2 [E,B,E][E,CE][E,E][E,D] | [A,C]6 z2 | %20
[M:6/8] [A,CE][A,C][A,C] [A,CE]3 | [A,CE][A,C][A,C] [A,CE]3 | [D,A,D][D,A,][D,A,] [F,A,D]3 | %23
 .A,3 z3 | [A,CE][A,C][A,C] [A,CE]3 | [A,CE][A,C][A,C] [A,CE]3 | [G,B,E][G,B,][G,B,] [F,A,=D]3 | %27
 [E,G,D]6 | [A,CE][A,C][A,C] [A,CE]3 | [A,CE][A,C][A,C] [A,CE]3 | [D,D][D,D][D,D] [D,F,]3 | %31
 [C,G,][C,G,][C,A,] [C,G,]3 | [F,=A,E][F,A,][F,A,] [F,A,E]3 | [B,,B,][B,,B,][B,,B,] [=D,G,_C]3 | %34
 [E,A,C][E,A,][E,A,] [E,G,D]3 | [A,,A,][A,,E,][A,,F,] [A,,E,]3 |] %36
V:3
 x8 | x8 | x8 | x8 |[M:3/4] x6 |[M:1/4] x2 |[M:4/4] z4 [CA]4 | x8 | x8 |[M:3/4] x6 |[M:1/4] x2 | %11
[M:4/4] x8 | x8 | x8 |[M:3/4] z2 C2 D2 |[M:1/4] x2 |[M:4/4] x8 | x8 | x8 | x8 |[M:6/8] z EE c_c=c | %21
 z EE A3 | z DD A3 | z A,C [CE]3 | z EE c_c=c | z EE A3 | z EE B3 | x6 | z EE c_c=c | z EE A3 | %30
 FFF [FB]3 | =EEF E3 | z EE ced | DDD F3 | E3 z3 | .C3 z3 |] %36
V:4
 x8 | x8 | x8 | x8 |[M:3/4] x6 |[M:1/4] x2 |[M:4/4] z4 z2 E,2 | x8 | x8 |[M:3/4] x6 |[M:1/4] x2 | %11
[M:4/4] x8 | x8 | x8 |[M:3/4] x6 |[M:1/4] x2 |[M:4/4] x8 | x8 | x8 | x8 |[M:6/8] x6 | x6 | x6 | %23
 x6 | x6 | x6 | x6 | x6 | x6 | x6 | x6 | x6 | x6 | x6 | x6 | x6 |] %36
V:5
 x8 | x8 | x8 | x8 |[M:3/4] x6 |[M:1/4] x2 |[M:4/4] z4 z2 A,,2 | x2[K:treble] x6 | x8 | %9
[M:3/4] [E,D]6 |[M:1/4] x2 |[M:4/4] x8 | x8 | x8 |[M:3/4] x6 |[M:1/4] x2 |[M:4/4] x8 | x8 | x8 | %19
 x8 |[M:6/8] x6 | x6 | x6 | C-[E,C][C,A,] [A,,A,]3 | x6 | x6 | x6 | x6 | x6 | x6 | x6 | x6 | x6 | %33
 x6 | x6 | x6 |] %36

